assets/svg/0031-20e3.svg

<svg xmlns="http://www.w3.org/2000/svg" viewBox="0 0 64 64" enable-background="new 0 0 64 64"><path fill="#d0d0d0" d="m62 52c0 5.523-4.478 10-10 10h-40c-5.522 0-10-4.477-10-10v-40c0-5.523 4.478-10 10-10h40c5.522 0 10 4.477 10 10v40"/><path fill="#fff" d="M57,45.666C57,50.27,53.269,54,48.667,54H15.333C10.731,54,7,50.27,7,45.666V12.334
			C7,7.73,10.731,4,15.333,4h33.334C53.269,4,57,7.73,57,12.334V45.666z"/><path fill="#9aa0a5" d="m38 45h-6.108v-23.02c-2.232 2.086-4.862 3.629-7.892 4.629v-5.543c1.594-.521 3.326-1.512 5.195-2.967 1.87-1.455 3.152-3.156 3.848-5.098h4.957v32"/></svg>

<svg xmlns="http://www.w3.org/2000/svg" width="64" height="64" viewBox="0 0 64 64"><path fill="#D0D0D0" d="M62 52c0 5.523-4.478 10-10 10H12C6.478 62 2 57.523 2 52V12C2 6.477 6.478 2 12 2h40c5.522 0 10 4.477 10 10v40z"/><path fill="#FFF" d="M57 45.666A8.333 8.333 0 0 1 48.667 54H15.333A8.333 8.333 0 0 1 7 45.666V12.334A8.333 8.333 0 0 1 15.333 4h33.334A8.333 8.333 0 0 1 57 12.334v33.332z"/><g><path fill="#9AA0A5" d="M38 45h-6.108V21.979C29.66 24.065 27.03 25.608 24 26.608v-5.543c1.594-.521 3.326-1.512 5.195-2.967 1.87-1.455 3.152-3.156 3.848-5.098H38v32z"/></g></svg>
